X: 26853
T: Mind The Nettles!
R: reel
M: 4/4
K: Dmajor
|:DFA,D FEDE|FAAB ADFA|BABc dBAF|GE F/E/D CEA,C|
DFA,D FEDE|FAAB ADFA|~B3 c dBAF|1 GFEG FDDC:|2 GFEG FDDA||
|:dABd A2 FA|defd edBc|d2 dB AdFA|GFEG FDAB|
dABd A2 FA|defd edBc|dfaf gfec|1 dBAG FDDA:|2 dBAG FDDC||

